Pods/ProtonCore-UIFoundations/libraries/UIFoundations/Sources/Assets.xcassets/Images/IconSet/ic-arrow-out-from-rectangle.imageset/ic-arrow-out-from-rectangle.svg

<svg width="24" height="24" viewBox="0 0 24 24" fill="none" xmlns="http://www.w3.org/2000/svg">
<path d="M14.2564 7.5V4.5C14.2564 3.67157 13.5848 3 12.7564 3H4.50025C3.67182 3 3.00024 3.67157 3.00024 4.5L3.00024 19.5C3.00024 20.3284 3.67182 21 4.50024 21H12.7564C13.5848 21 14.2564 20.3284 14.2564 19.5V16.5H15.7564V19.5C15.7564 21.1569 14.4133 22.5 12.7564 22.5H4.50024C2.84339 22.5 1.50024 21.1569 1.50024 19.5L1.50024 4.5C1.50024 2.84315 2.84339 1.5 4.50025 1.5H12.7564C14.4133 1.5 15.7564 2.84315 15.7564 4.5V7.5H14.2564Z" fill="#0C0C14"/>
<path d="M17.4692 7.72811C17.7575 7.43063 18.2323 7.42313 18.5298 7.71136L22.1777 11.2459C22.6035 11.6585 22.6035 12.3415 22.1777 12.7541L18.5298 16.2886C18.2323 16.5769 17.7575 16.5694 17.4692 16.2719C17.181 15.9744 17.1885 15.4996 17.486 15.2114L20.0263 12.75L9.76084 12.75C9.34662 12.75 9.01084 12.4142 9.01084 12C9.01084 11.5858 9.34662 11.25 9.76084 11.25L20.0263 11.25L17.486 8.78864C17.1885 8.5004 17.181 8.02559 17.4692 7.72811Z" fill="#0C0C14"/>
</svg>

<svg xmlns="http://www.w3.org/2000/svg" width="24" height="24" viewBox="0 0 24 24">
  <g class="ic-arrow-out-from-rectangle">
    <g class="Icon">
      <path d="M14.256 7.5v-3a1.5 1.5 0 0 0-1.5-1.5H4.5A1.5 1.5 0 0 0 3 4.5v15A1.5 1.5 0 0 0 4.5 21h8.256a1.5 1.5 0 0 0 1.5-1.5v-3h1.5v3a3 3 0 0 1-3 3H4.5a3 3 0 0 1-3-3v-15a3 3 0 0 1 3-3h8.256a3 3 0 0 1 3 3v3h-1.5Z"/>
      <path d="M17.469 7.728a.75.75 0 0 1 1.06-.017l3.648 3.535a1.05 1.05 0 0 1 0 1.508L18.53 16.29a.75.75 0 1 1-1.043-1.078l2.54-2.461H9.761a.75.75 0 0 1 0-1.5h10.265l-2.54-2.461a.75.75 0 0 1-.017-1.06Z"/>
    </g>
  </g>
</svg>
